X:752
T:Neil Gow's Wife
R:Strathspey
C:Ducan MacIntyre
B:The Athole Collection
M:C
L:1/8
K:G Minor
d|B<G G>B A<F ~F>A|B<G G>A B>A B<g|B<G G>B A<F F>A|
~B2 d>B F<BB:|
d|B<B d>B f>Bd>B|F<F A>F c>FA>c|~B2 d>B f>Bd>f|g<g b>g d<g g>b|
f<d d>f e<c c>e|d<B B>d c<B A>F|G<GB<B c<c d>c|B>G B/A/G/^F/ D<GG||

